%
(Header)
(Generated by gcodetools from Inkscape.)
(Using default header. To add your own header create file "header" in the output dir.)
M3
(Header end.)
G21 (All units in mm)

(Start cutting path id: path34)
(Change tool to Default tool)

G00 Z5.000000
G00 X52.234375 Y164.748050

G01 Z-1.000000 F100.0(Penetrate)
G03 X42.813117 Y163.995250 Z-1.000000 I-2.098847 J-33.062733 F400.000000
G03 X37.472656 Y161.271480 Z-1.000000 I2.690845 J-11.873277
G03 X29.707521 Y149.481913 Z-1.000000 I17.587051 J-20.035633
G03 X26.119141 Y126.373050 Z-1.000000 I69.614695 J-22.642913
G02 X25.479236 Y122.976177 Z-1.000000 I-9.027208 J-0.058160
G02 X22.476562 Y117.218750 Z-1.000000 I-29.658323 J11.806017
G03 X7.466831 Y81.517296 Z-1.000000 I88.082035 J-58.037708
G03 X9.792969 Y58.685550 Z-1.000000 I36.209482 J-7.845284
G03 X13.062338 Y52.677540 Z-1.000000 I38.219224 J16.904146
G03 X21.388672 Y40.998050 Z-1.000000 I153.631523 J100.716572
G02 X31.584159 Y25.155713 Z-1.000000 I-86.196306 J-66.674327
G02 X35.011719 Y15.164060 Z-1.000000 I-30.296049 J-15.976552
G03 X37.166055 Y10.127578 Z-1.000000 I11.902554 J2.112278
G03 X40.634766 Y7.498050 Z-1.000000 I6.149934 J4.509993
G03 X45.232546 Y6.529270 Z-1.000000 I5.469954 J14.565317
G03 X51.067032 Y6.715443 Z-1.000000 I1.861997 J33.163628
G03 X56.653370 Y8.050111 Z-1.000000 I-3.002582 J24.925809
G03 X58.355469 Y9.632810 Z-1.000000 I-1.021151 J2.804791
G03 X58.689380 Y10.592210 Z-1.000000 I-5.339626 J2.396220
G03 X61.160156 Y20.705080 Z-1.000000 I-600.071395 J151.967673
G01 X63.546875 Y30.845700 Z-1.000000
G01 X60.103516 Y30.828100 Z-1.000000
G02 X48.460760 Y33.218409 Z-1.000000 I-0.142003 J28.858352
G02 X41.880859 Y38.746070 Z-1.000000 I6.012327 J13.836879
G02 X40.543637 Y50.549138 Z-1.000000 I10.935784 J7.216248
G02 X49.916016 Y60.244120 Z-1.000000 I15.814278 J-5.910308
G02 X55.790205 Y61.656019 Z-1.000000 I7.436847 J-18.015223
G02 X61.367188 Y61.166000 Z-1.000000 I1.343003 J-16.696348
G03 X62.221098 Y61.611048 Z-1.000000 I0.181282 J0.693893
G03 X63.173828 Y66.046860 Z-1.000000 I-14.951998 J5.531633
G03 X63.431231 Y71.307943 Z-1.000000 I-132.005862 J9.095330
G03 X63.949219 Y92.806620 Z-1.000000 I-2197.014101 J63.690355
G02 X64.381471 Y114.309364 Z-1.000000 I11905.445618 J-228.569410
G02 X64.457031 Y116.998030 Z-1.000000 I189.553149 J-3.981681
G01 X64.552731 Y119.687480 Z-1.000000
G01 X60.990231 Y119.669880 Z-1.000000
G02 X48.155454 Y122.219123 Z-1.000000 I-0.161082 J32.773507
G02 X41.623044 Y127.790980 Z-1.000000 I5.456249 J13.012077
G02 X39.592357 Y134.599096 Z-1.000000 I11.499558 J7.136933
G02 X41.285153 Y141.728480 Z-1.000000 I14.386938 J0.349636
G02 X48.017780 Y148.332642 Z-1.000000 I13.873848 J-7.409848
G02 X58.871091 Y150.689410 Z-1.000000 I9.902178 J-19.432141
G01 X62.804685 Y150.517540 Z-1.000000
G01 X62.433591 Y155.607380 Z-1.000000
G03 X60.709510 Y161.934912 Z-1.000000 I-17.046415 J-1.246039
G03 X58.382809 Y163.804650 Z-1.000000 I-3.176230 J-1.569957
G03 X55.282922 Y164.420934 Z-1.000000 I-8.260807 J-33.447284
G03 X52.234372 Y164.748010 Z-1.000000 I-5.282733 J-34.867569
G01 X52.234375 Y164.748050 Z-1.000000
G00 Z5.000000

(End cutting path id: path34)


(Start cutting path id: path34)
(Change tool to Default tool)

G00 Z5.000000
G00 X49.722656 Y162.902340

G01 Z-1.000000 F100.0(Penetrate)
G02 X55.770385 Y162.615341 Z-1.000000 I0.284506 J-57.868011 F400.000000
G02 X57.859375 Y162.087890 Z-1.000000 I-0.729697 J-7.290490
G02 X59.201558 Y160.761734 Z-1.000000 I-0.967501 J-2.321474
G02 X60.111328 Y156.865230 Z-1.000000 I-10.405006 J-4.483858
G01 X60.339844 Y152.486330 Z-1.000000
G01 X57.064453 Y152.468730 Z-1.000000
G03 X43.541625 Y147.545100 Z-1.000000 I0.104777 J-21.319918
G03 X37.673828 Y136.351540 Z-1.000000 I10.508443 J-12.643414
G03 X42.180818 Y124.827605 Z-1.000000 I13.850799 J-1.226283
G03 X57.708984 Y118.171860 Z-1.000000 I17.418740 J19.196897
G01 X62.544922 Y117.818340 Z-1.000000
G01 X62.449222 Y116.060530 Z-1.000000
G03 X62.377504 Y114.301313 Z-1.000000 I63.453423 J-3.467884
G03 X61.716800 Y88.835920 Z-1.000000 I13379.019731 J-359.862094
G02 X61.037328 Y63.398517 Z-1.000000 I-7405.517401 J185.084930
G02 X60.992191 Y63.333960 Z-1.000000 I-0.071648 J0.002037
G02 X60.900887 Y63.314869 Z-1.000000 I-0.096706 J0.234622
G02 X56.648441 Y63.242160 Z-1.000000 I-10.797155 J507.091950
G03 X45.034694 Y59.396056 Z-1.000000 I0.259526 J-20.241233
G03 X38.398441 Y50.025360 Z-1.000000 I10.458942 J-14.442159
G03 X41.312458 Y37.108296 Z-1.000000 I12.996013 J-3.855398
G03 X57.009769 Y29.318330 Z-1.000000 I17.657499 J15.870505
G02 X60.439683 Y28.500917 Z-1.000000 I-0.965723 J-11.656998
G02 X60.794925 Y27.783170 Z-1.000000 I-0.226674 J-0.558976
G03 X60.483698 Y26.584108 Z-1.000000 I48.192553 J-13.148709
G03 X58.560550 Y18.712860 Z-1.000000 I2044.824741 J-503.773817
G02 X56.693398 Y12.079460 Z-1.000000 I-91.334124 J22.129003
G02 X55.444658 Y9.937674 Z-1.000000 I-5.486219 J1.763744
G02 X53.426422 Y8.799162 Z-1.000000 I-2.770886 J2.553825
G02 X48.902347 Y8.234350 Z-1.000000 I-5.927990 J29.081417
G02 X39.724990 Y10.502023 Z-1.000000 I-0.783087 J16.535205
G02 X36.992191 Y15.242160 Z-1.000000 I2.811579 J4.778770
G03 X34.949708 Y23.501500 Z-1.000000 I-18.234359 J-0.127026
G03 X23.296878 Y41.681610 Z-1.000000 I-104.240197 J-53.989819
G02 X11.761336 Y60.143918 Z-1.000000 I82.987157 J64.686635
G02 X8.503909 Y71.931610 Z-1.000000 I29.827457 J14.586487
G02 X10.709324 Y89.080935 Z-1.000000 I40.885264 J3.458598
G02 X24.167972 Y116.185520 Z-1.000000 I118.473154 J-41.933554
G03 X27.385709 Y122.496970 Z-1.000000 I-26.934912 J17.708068
G03 X28.138675 Y126.687470 Z-1.000000 I-10.908298 J4.122945
G02 X29.916015 Y141.276632 Z-1.000000 I57.881861 J0.351326
G02 X35.324222 Y155.003880 Z-1.000000 I56.553678 J-14.351819
G02 X38.271663 Y159.239471 Z-1.000000 I21.402888 J-11.750408
G02 X40.740237 Y161.255830 Z-1.000000 I7.035551 J-6.094153
G02 X43.751809 Y162.345059 Z-1.000000 I4.759727 J-8.452100
G02 X49.722659 Y162.902310 Z-1.000000 I6.138037 J-33.501058
G01 X49.722656 Y162.902340 Z-1.000000
G00 Z5.000000

(End cutting path id: path34)


(Start cutting path id: path34)
(Change tool to Default tool)

G00 Z5.000000
G00 X57.035156 Y149.636720

G01 Z-1.000000 F100.0(Penetrate)
G03 X51.484665 Y148.663856 Z-1.000000 I0.576203 J-19.607486 F400.000000
G03 X46.537109 Y146.087890 Z-1.000000 I5.387945 J-16.387685
G03 X42.254098 Y141.104277 Z-1.000000 I9.084126 J-12.139326
G03 X40.869141 Y135.500000 Z-1.000000 I10.316812 J-5.522809
G03 X41.997240 Y130.423667 Z-1.000000 I12.373450 J0.086203
G03 X45.253906 Y125.947270 Z-1.000000 I12.750980 J5.853744
G03 X59.390781 Y121.104375 Z-1.000000 I12.590942 J13.699274
G03 X71.695312 Y128.152340 Z-1.000000 I-1.391911 J16.694814
G03 X73.617115 Y131.266866 Z-1.000000 I-24.627973 J17.346752
G03 X74.119141 Y132.671880 Z-1.000000 I-4.431920 J2.375767
G03 X73.245291 Y140.530905 Z-1.000000 I-12.914186 J2.542158
G03 X67.917969 Y146.714840 Z-1.000000 I-12.828727 J-5.665010
G03 X62.643204 Y149.003335 Z-1.000000 I-9.958530 J-15.730308
G03 X57.035156 Y149.636720 Z-1.000000 I-5.021712 J-19.318912
G01 X57.035156 Y149.636720 Z-1.000000
G00 Z5.000000

(End cutting path id: path34)


(Start cutting path id: path34)
(Change tool to Default tool)

G00 Z5.000000
G00 X56.746094 Y147.894530

G01 Z-1.000000 F100.0(Penetrate)
G02 X62.726904 Y147.050991 Z-1.000000 I0.661630 J-16.933115 F400.000000
G02 X68.333984 Y143.707030 Z-1.000000 I-4.727509 J-14.299875
G02 X70.644213 Y141.002382 Z-1.000000 I-11.358168 J-12.040790
G02 X71.750000 Y138.705080 Z-1.000000 I-7.014148 J-4.790985
G02 X71.833548 Y132.979193 Z-1.000000 I-9.788632 J-3.006381
G02 X68.691406 Y127.601560 Z-1.000000 I-11.679013 J3.217237
G02 X58.198453 Y123.020776 Z-1.000000 I-11.144768 J11.220504
G02 X47.248047 Y126.716800 Z-1.000000 I-0.664211 J16.101794
G02 X43.900888 Y131.190398 Z-1.000000 I7.620267 J9.190484
G02 X43.013672 Y136.564450 Z-1.000000 I10.416520 J4.479951
G02 X47.518437 Y144.663587 Z-1.000000 I11.113533 J-0.879030
G02 X56.746094 Y147.894530 Z-1.000000 I9.878239 J-13.419821
G01 X56.746094 Y147.894530 Z-1.000000
G00 Z5.000000

(End cutting path id: path34)


(Start cutting path id: path34)
(Change tool to Default tool)

G00 Z5.000000
G00 X56.146484 Y145.646480

G01 Z-1.000000 F100.0(Penetrate)
G03 X53.674522 Y145.197211 Z-1.000000 I1.294368 J-14.147097 F400.000000
G03 X51.271484 Y144.277340 Z-1.000000 I3.512498 J-12.774661
G03 X45.830637 Y135.117367 Z-1.000000 I4.394134 J-8.805897
G03 X51.912109 Y126.468750 Z-1.000000 I9.686378 J0.348726
G03 X62.145516 Y126.030873 Z-1.000000 I5.738965 J14.323647
G03 X68.791016 Y131.607420 Z-1.000000 I-3.224507 J10.590556
G03 X69.678197 Y135.610283 Z-1.000000 I-7.332015 J3.724790
G03 X68.511719 Y139.859380 Z-1.000000 I-9.492074 J-0.321137
G03 X63.542947 Y144.427216 Z-1.000000 I-9.253921 J-5.079805
G03 X56.146484 Y145.646480 Z-1.000000 I-6.040581 J-13.599843
G01 X56.146484 Y145.646480 Z-1.000000
G00 Z5.000000

(End cutting path id: path34)


(Start cutting path id: path34)
(Change tool to Default tool)

G00 Z5.000000
G00 X58.158203 Y143.951170

G01 Z-1.000000 F100.0(Penetrate)
G02 X62.575778 Y142.799447 Z-1.000000 I-0.518587 J-11.037041 F400.000000
G02 X66.250000 Y139.492190 Z-1.000000 I-4.143417 J-8.297741
G02 X67.529396 Y136.986548 Z-1.000000 I-12.363844 J-7.892511
G02 X67.808594 Y135.546880 Z-1.000000 I-3.717692 J-1.467886
G02 X67.549077 Y134.103509 Z-1.000000 I-3.989604 J-0.027689
G02 X66.304688 Y131.585940 Z-1.000000 I-13.649698 J5.180477
G02 X54.824477 Y126.652479 Z-1.000000 I-9.272902 J5.754120
G02 X47.609375 Y135.447270 Z-1.000000 I1.829400 J8.857781
G02 X50.994651 Y141.918613 Z-1.000000 I7.774488 J0.054146
G02 X58.158203 Y143.951170 Z-1.000000 I6.613718 J-9.669510
G01 X58.158203 Y143.951170 Z-1.000000
G00 Z5.000000

(End cutting path id: path34)


(Start cutting path id: path34)
(Change tool to Default tool)

G00 Z5.000000
G00 X28.847656 Y114.136720

G01 Z-1.000000 F100.0(Penetrate)
G01 X27.187500 Y112.429690 Z-1.000000 F400.000000
G03 X22.410526 Y106.154185 Z-1.000000 I23.383833 J-22.755886
G03 X16.375000 Y93.955080 Z-1.000000 I83.921596 J-49.112936
G03 X11.352832 Y79.340928 Z-1.000000 I122.507365 J-50.269791
G03 X11.847656 Y77.755860 Z-1.000000 I1.469788 J-0.410934
G03 X12.139902 Y77.659422 Z-1.000000 I0.268875 J0.323766
G03 X20.623047 Y78.244140 Z-1.000000 I-17.812467 J320.254320
G01 X29.142578 Y78.945310 Z-1.000000
G01 X28.996094 Y96.541020 Z-1.000000
G01 X28.847656 Y114.136720 Z-1.000000
G00 Z5.000000

(End cutting path id: path34)


(Start cutting path id: path34)
(Change tool to Default tool)

G00 Z5.000000
G00 X26.628906 Y108.183590

G01 Z-1.000000 F100.0(Penetrate)
G02 X26.775048 Y108.042149 Z-1.000000 I0.000709 J-0.145488 F400.000000
G02 X27.013672 Y94.322270 Z-1.000000 I-657.956739 J-18.305571
G02 X26.542616 Y81.001920 Z-1.000000 I-157.538802 J-1.097364
G02 X25.931641 Y80.414060 Z-1.000000 I-0.635911 J0.049487
G03 X24.754649 Y80.347801 Z-1.000000 I1.335712 J-34.213813
G03 X19.537109 Y79.943360 Z-1.000000 I49.114793 J-667.468277
G02 X14.748720 Y79.984970 Z-1.000000 I-2.163537 J26.564616
G02 X14.314453 Y80.460940 Z-1.000000 I0.047442 J0.479379
G02 X15.040927 Y84.988245 Z-1.000000 I13.868092 J0.096596
G02 X19.931641 Y97.117190 Z-1.000000 I106.703440 J-35.975166
G02 X25.544073 Y107.569785 Z-1.000000 I104.449288 J-49.350085
G02 X26.628906 Y108.183590 Z-1.000000 I1.088820 J-0.658806
G01 X26.628906 Y108.183590 Z-1.000000
G00 Z5.000000

(End cutting path id: path34)


(Start cutting path id: path34)
(Change tool to Default tool)

G00 Z5.000000
G00 X33.449219 Y88.978520

G01 Z-1.000000 F100.0(Penetrate)
G03 X32.879326 Y88.538706 Z-1.000000 I0.002986 J-0.592999 F400.000000
G03 X32.464844 Y85.296880 Z-1.000000 I11.805929 J-3.156849
G03 X32.923722 Y82.057203 Z-1.000000 I12.269015 J0.085485
G03 X33.500000 Y81.623050 Z-1.000000 I0.573279 J0.161408
G03 X34.070084 Y82.063123 Z-1.000000 I-0.002987 J0.593158
G03 X34.484375 Y85.306640 Z-1.000000 I-11.823500 J3.158419
G03 X34.025339 Y88.544598 Z-1.000000 I-12.251323 J-0.085320
G03 X33.449219 Y88.978520 Z-1.000000 I-0.573121 J-0.161516
G01 X33.449219 Y88.978520 Z-1.000000
G00 Z5.000000

(End cutting path id: path34)


(Start cutting path id: path34)
(Change tool to Default tool)

G00 Z5.000000
G00 X27.314453 Y75.160160

G01 Z-1.000000 F100.0(Penetrate)
G02 X26.123869 Y74.964186 Z-1.000000 I-1.839707 J7.462112 F400.000000
G02 X18.902344 Y74.447270 Z-1.000000 I-23.334965 J275.296412
G03 X11.874471 Y73.827653 Z-1.000000 I6.958189 J-119.087675
G03 X11.667969 Y73.593750 Z-1.000000 I0.027427 J-0.232321
G03 X12.610573 Y68.052230 Z-1.000000 I17.475750 J0.121670
G03 X17.867188 Y55.494140 Z-1.000000 I97.033039 J33.237263
G03 X22.114439 Y48.434810 Z-1.000000 I46.824985 J23.364938
G03 X26.699219 Y43.134770 Z-1.000000 I30.786753 J21.998926
G01 X28.730469 Y41.185550 Z-1.000000
G01 X28.611328 Y58.318360 Z-1.000000
G03 X27.923090 Y74.720043 Z-1.000000 I-234.750567 J-1.635184
G03 X27.314453 Y75.160160 Z-1.000000 I-0.490796 J-0.037821
G01 X27.314453 Y75.160160 Z-1.000000
G00 Z5.000000

(End cutting path id: path34)


(Start cutting path id: path34)
(Change tool to Default tool)

G00 Z5.000000
G00 X26.488281 Y73.101560

G01 Z-1.000000 F100.0(Penetrate)
G01 X26.580081 Y59.734380 Z-1.000000 F400.000000
G02 X26.505202 Y48.720620 Z-1.000000 I-400.100393 J-2.786969
G02 X26.049441 Y47.355970 Z-1.000000 I-2.419929 J0.049767
G02 X25.235727 Y47.359786 Z-1.000000 I-0.405496 J0.292002
G02 X21.650394 Y52.890620 Z-1.000000 I68.045105 J48.037374
G02 X17.330421 Y61.652398 Z-1.000000 I54.264089 J32.200640
G02 X14.697269 Y70.271480 Z-1.000000 I49.814127 J19.930104
G01 X14.257815 Y72.308590 Z-1.000000
G01 X17.435550 Y72.689450 Z-1.000000
G02 X20.619540 Y72.983293 Z-1.000000 I6.915502 J-57.536869
G02 X23.550784 Y73.085940 Z-1.000000 I3.208939 J-49.731922
G01 X26.488281 Y73.101560 Z-1.000000
G00 Z5.000000

(End cutting path id: path34)


(Start cutting path id: path34)
(Change tool to Default tool)

G00 Z5.000000
G00 X57.988281 Y60.287110

G01 Z-1.000000 F100.0(Penetrate)
G03 X52.144719 Y59.352815 Z-1.000000 I0.073670 J-19.202233 F400.000000
G03 X46.972656 Y56.607420 Z-1.000000 I5.189342 J-16.020763
G03 X42.794193 Y51.697106 Z-1.000000 I9.838034 J-12.604741
G03 X41.503906 Y46.646480 Z-1.000000 I9.166171 J-5.031816
G03 X42.571886 Y41.212224 Z-1.000000 I14.516107 J0.030740
G03 X45.441406 Y36.957030 Z-1.000000 I11.549835 J4.693576
G03 X50.844174 Y33.548222 Z-1.000000 I10.804674 J11.138853
G03 X58.089844 Y32.261720 Z-1.000000 I7.161363 J19.285988
G03 X68.956497 Y35.526847 Z-1.000000 I-0.081355 J19.985949
G03 X74.589844 Y43.064450 Z-1.000000 I-7.531323 J11.502540
G03 X74.348008 Y50.414260 Z-1.000000 I-11.011806 J3.316554
G03 X69.484375 Y56.695310 Z-1.000000 I-12.563826 J-4.705038
G03 X63.866328 Y59.428001 Z-1.000000 I-11.350384 J-16.193547
G03 X57.988281 Y60.287110 Z-1.000000 I-5.801217 J-19.153657
G01 X57.988281 Y60.287110 Z-1.000000
G00 Z5.000000

(End cutting path id: path34)


(Start cutting path id: path34)
(Change tool to Default tool)

G00 Z5.000000
G00 X57.363281 Y58.472660

G01 Z-1.000000 F100.0(Penetrate)
G02 X66.498666 Y56.359417 Z-1.000000 I0.545870 J-18.442649 F400.000000
G02 X72.130859 Y49.892580 Z-1.000000 I-5.519631 J-10.493294
G02 X72.850155 Y45.915000 Z-1.000000 I-11.393157 J-4.114139
G02 X72.212889 Y42.634770 Z-1.000000 I-8.280343 J-0.093355
G02 X63.619054 Y34.679109 Z-1.000000 I-12.995762 J5.418804
G02 X50.681639 Y35.548830 Z-1.000000 I-5.395832 J16.394268
G02 X45.665877 Y39.678908 Z-1.000000 I6.054881 J12.464061
G02 X43.652342 Y44.884770 Z-1.000000 I8.175366 J6.154418
G02 X44.315337 Y50.134260 Z-1.000000 I12.154366 J1.131551
G02 X47.056639 Y54.384770 Z-1.000000 I10.500353 J-3.762807
G02 X51.838684 Y57.397069 Z-1.000000 I9.557638 J-9.870901
G02 X57.363279 Y58.472660 Z-1.000000 I6.038618 J-16.290485
G01 X57.363281 Y58.472660 Z-1.000000
G00 Z5.000000

(End cutting path id: path34)


(Start cutting path id: path34)
(Change tool to Default tool)

G00 Z5.000000
G00 X60.931641 Y56.105470

G01 Z-1.000000 F100.0(Penetrate)
G03 X52.638046 Y55.433730 Z-1.000000 I-2.839026 J-16.482197 F400.000000
G03 X47.279297 Y50.941410 Z-1.000000 I3.190652 J-9.248332
G03 X45.959741 Y45.958019 Z-1.000000 I9.145287 J-5.087987
G03 X47.187497 Y41.628910 Z-1.000000 I7.965444 J-0.079615
G03 X53.771445 Y36.596007 Z-1.000000 I10.070988 J6.351725
G03 X62.937497 Y36.804690 Z-1.000000 I4.268148 J13.934821
G03 X66.787325 Y38.971222 Z-1.000000 I-4.391851 J12.307866
G03 X69.214841 Y41.906250 Z-1.000000 I-6.126271 J7.538338
G03 X69.923127 Y48.332882 Z-1.000000 I-7.600129 J4.089965
G03 X65.757809 Y54.197270 Z-1.000000 I-10.282330 J-2.891813
G03 X63.505500 Y55.395259 Z-1.000000 I-6.054531 J-8.666724
G03 X60.931638 Y56.105470 Z-1.000000 I-4.874661 J-12.647114
G01 X60.931641 Y56.105470 Z-1.000000
G00 Z5.000000

(End cutting path id: path34)


(Start cutting path id: path34)
(Change tool to Default tool)

G00 Z5.000000
G00 X57.111328 Y54.451170

G01 Z-1.000000 F100.0(Penetrate)
G02 X63.410786 Y53.323120 Z-1.000000 I0.956207 J-12.813482 F400.000000
G02 X67.123047 Y49.873050 Z-1.000000 I-3.350468 J-7.327313
G02 X67.959417 Y44.951878 Z-1.000000 I-6.679492 J-3.666860
G02 X65.568359 Y40.562500 Z-1.000000 I-7.531953 J1.256997
G02 X54.186323 Y38.183530 Z-1.000000 I-7.709412 J8.467400
G02 X48.224609 Y46.435550 Z-1.000000 I2.814869 J8.313162
G02 X48.837022 Y49.209179 Z-1.000000 I6.385611 J0.044491
G02 X50.773438 Y51.828120 Z-1.000000 I7.595168 J-3.590430
G02 X53.582343 Y53.611854 Z-1.000000 I6.500095 J-7.132408
G02 X57.111328 Y54.451170 Z-1.000000 I4.381384 J-10.583317
G01 X57.111328 Y54.451170 Z-1.000000
G00 Z5.000000

(End cutting path id: path34)


(Footer)
M5
G00 X0.0000 Y0.0000
M2
(Using default footer. To add your own footer create file "footer" in the output dir.)
(end)
%